js/packages/common/src/svgs/stat_wumbo.svg

<svg width="24" height="24" viewBox="0 0 24 24" fill="none" xmlns="http://www.w3.org/2000/svg">
<circle cx="12" cy="12" r="11.025" stroke="#5856EB" stroke-width="1.94999"/>
<path fill-rule="evenodd" clip-rule="evenodd" d="M7.57916 8.41077C7.13615 7.65736 6.16626 7.40573 5.41285 7.84873C4.65944 8.29174 4.4078 9.26163 4.85081 10.015L8.0381 15.4356C8.32008 15.9152 8.83314 16.2115 9.38943 16.216C9.94572 16.2205 10.4635 15.9326 10.7533 15.4577L12.6661 12.3222L14.44 15.4199C14.8743 16.1784 15.8412 16.4411 16.5997 16.0068C17.3581 15.5725 17.6209 14.6055 17.1866 13.8471L14.0824 8.42648C13.8044 7.94092 13.2906 7.63828 12.7311 7.63053C12.1716 7.62278 11.6496 7.91106 11.3582 8.38874L9.42728 11.5538L7.57916 8.41077ZM19.6927 9.21223C19.6927 9.95698 19.0889 10.5607 18.3442 10.5607C17.5994 10.5607 16.9957 9.95698 16.9957 9.21223C16.9957 8.46748 17.5994 7.86374 18.3442 7.86374C19.0889 7.86374 19.6927 8.46748 19.6927 9.21223Z" fill="#5856EB"/>
<path fill-rule="evenodd" clip-rule="evenodd" d="M7.46481 8.47939C7.05872 7.78876 6.16965 7.55809 5.47902 7.96418C4.78839 8.37027 4.55773 9.25934 4.96382 9.94997L8.15111 15.3706C8.40959 15.8101 8.8799 16.0817 9.38983 16.0859C9.89977 16.09 10.3744 15.8261 10.64 15.3908L12.669 12.0649L14.5537 15.3562C14.9519 16.0514 15.8382 16.2923 16.5335 15.8941C17.2287 15.496 17.4696 14.6096 17.0715 13.9144L13.9673 8.49379C13.7124 8.04869 13.2414 7.77127 12.7286 7.76417C12.2157 7.75706 11.7372 8.02132 11.4701 8.45919L9.42452 11.8123L7.46481 8.47939ZM5.34533 7.73682C6.16153 7.2569 7.21225 7.5295 7.69217 8.3457L9.42869 11.299L11.2449 8.32183C11.5606 7.80434 12.1261 7.49204 12.7322 7.50044C13.3383 7.50884 13.895 7.83669 14.1962 8.36272L17.3003 13.7833C17.7709 14.605 17.4862 15.6525 16.6646 16.123C15.8429 16.5935 14.7954 16.3089 14.3249 15.4872L12.6618 12.5831L10.8652 15.5281C10.5513 16.0426 9.99034 16.3545 9.38769 16.3496C8.78505 16.3447 8.22923 16.0238 7.92375 15.5042L4.73645 10.0837C4.25653 9.26746 4.52914 8.21674 5.34533 7.73682ZM16.8632 9.214C16.8632 8.39642 17.5259 7.73363 18.3435 7.73363C19.1611 7.73363 19.8239 8.39642 19.8239 9.214C19.8239 10.0316 19.1611 10.6944 18.3435 10.6944C17.5259 10.6944 16.8632 10.0316 16.8632 9.214ZM18.3435 7.99739C17.6716 7.99739 17.1269 8.54208 17.1269 9.214C17.1269 9.88592 17.6716 10.4306 18.3435 10.4306C19.0154 10.4306 19.5601 9.88592 19.5601 9.214C19.5601 8.54208 19.0154 7.99739 18.3435 7.99739Z" fill="#5856EB"/>
</svg>

<svg width="24" height="24" fill="none" xmlns="http://www.w3.org/2000/svg">
  <circle cx="12" cy="12" r="11.025" stroke="#5856EB" stroke-width="1.95"/>
  <path fill-rule="evenodd" clip-rule="evenodd" d="M7.58 8.41a1.583 1.583 0 0 0-2.73 1.605l3.188 5.42a1.582 1.582 0 0 0 2.715.023l1.913-3.136 1.774 3.098a1.582 1.582 0 1 0 2.747-1.573l-3.105-5.42a1.582 1.582 0 0 0-2.724-.038l-1.93 3.165L7.578 8.41Zm12.113.802a1.349 1.349 0 1 1-2.697 0 1.349 1.349 0 0 1 2.697 0Z" fill="#5856EB"/>
  <path fill-rule="evenodd" clip-rule="evenodd" d="M7.465 8.48a1.45 1.45 0 1 0-2.501 1.47l3.187 5.42a1.451 1.451 0 0 0 2.489.02l2.029-3.325 1.885 3.291a1.45 1.45 0 0 0 2.518-1.442l-3.105-5.42a1.45 1.45 0 0 0-2.497-.035l-2.045 3.353-1.96-3.333Zm-2.12-.743a1.714 1.714 0 0 1 2.347.609l1.737 2.953 1.816-2.977a1.714 1.714 0 0 1 2.951.04l3.104 5.421a1.714 1.714 0 1 1-2.975 1.704l-1.663-2.904-1.797 2.945a1.714 1.714 0 0 1-2.941-.024l-3.188-5.42a1.714 1.714 0 0 1 .61-2.347Zm11.518 1.477a1.48 1.48 0 1 1 2.96 0 1.48 1.48 0 0 1-2.96 0Zm1.48-1.217a1.217 1.217 0 1 0 0 2.434 1.217 1.217 0 0 0 0-2.434Z" fill="#5856EB"/>
</svg>
